icon/gr/cloud.svg

<svg xmlns="http://www.w3.org/2000/svg" viewBox="0 0 24 24" height="1em" width="1em">
  <path fill="none" stroke="#000" stroke-width="2" d="M18,17 L18,18 C18,21 16,22 13,22 L11,22 C8,22 6,21 6,18 L6,17 C3.23857625,17 1,14.7614237 1,12 C1,9.23857625 3.23857625,7 6,7 L12,7 M6,7 L6,6 C6,3 8,2 11,2 L13,2 C16,2 18,3 18,6 L18,7 C20.7614237,7 23,9.23857625 23,12 C23,14.7614237 20.7614237,17 18,17 L12,17"/>
</svg>

<svg xmlns="http://www.w3.org/2000/svg" width="24" height="24"><path fill="none" stroke="#000" stroke-width="2" d="M18 17v1c0 3-2 4-5 4h-2c-3 0-5-1-5-4v-1A5 5 0 0 1 6 7h6M6 7V6c0-3 2-4 5-4h2c3 0 5 1 5 4v1a5 5 0 0 1 0 10h-6"/></svg>
